X: 12342
T: Fall Of Dunboy, The
R: hornpipe
M: 4/4
K: Gmajor
dc|:B2 GB DBGB|d2 BG d2 BG|B2 GB DBGB|c2 AD c2 AD|
BGBd c2 cA|BGBd gfdc|BGBd gfdc|1 B2 G2 G2 dc:|2 B2 G2 G2 Bc||
dgBg d2 Bd|gBdg B3d|g2 ga b3a|gfgb d3e|
fafd cdcd|fAdf g2 de|fafd cdfa|g2 b2 g2 ga|
b3a gfga|b2 bg d3e|fafd fafd|gbgd gbgd|
fafd fafd|dccb c2 dc|BGBd c2 cA|BGBd gfdc|
BGBd gfdc|1 B2 G2 G2 Bc:|2 B2 G2 G2 dc||

